src/images/wave.svg

<svg xmlns="http://www.w3.org/2000/svg" viewBox="0 0 1440 320"><path fill="#222" d="M0 288V128h53.3v128h53.4v-32h106.6v-64h53.4V96H320V32h53.3v224h53.4v32H480V128h53.3v32h53.4v-32H640v96h53.3v64h53.4v-64H800V0h53.3v96h53.4V64H960v96h53.3V96h53.4v96h53.3v128h53.3V128H1280V96h53.3V32h53.4v256h53.3V0H0z"/></svg>

<?xml version="1.0" standalone="no"?><svg xmlns="http://www.w3.org/2000/svg" viewBox="0 0 1440 320"><path fill="#222222" fill-opacity="1" d="M0,288L0,128L53.3,128L53.3,256L106.7,256L106.7,224L160,224L160,224L213.3,224L213.3,160L266.7,160L266.7,96L320,96L320,32L373.3,32L373.3,256L426.7,256L426.7,288L480,288L480,128L533.3,128L533.3,160L586.7,160L586.7,128L640,128L640,224L693.3,224L693.3,288L746.7,288L746.7,224L800,224L800,0L853.3,0L853.3,96L906.7,96L906.7,64L960,64L960,160L1013.3,160L1013.3,96L1066.7,96L1066.7,192L1120,192L1120,320L1173.3,320L1173.3,128L1226.7,128L1226.7,128L1280,128L1280,96L1333.3,96L1333.3,32L1386.7,32L1386.7,288L1440,288L1440,0L1386.7,0L1386.7,0L1333.3,0L1333.3,0L1280,0L1280,0L1226.7,0L1226.7,0L1173.3,0L1173.3,0L1120,0L1120,0L1066.7,0L1066.7,0L1013.3,0L1013.3,0L960,0L960,0L906.7,0L906.7,0L853.3,0L853.3,0L800,0L800,0L746.7,0L746.7,0L693.3,0L693.3,0L640,0L640,0L586.7,0L586.7,0L533.3,0L533.3,0L480,0L480,0L426.7,0L426.7,0L373.3,0L373.3,0L320,0L320,0L266.7,0L266.7,0L213.3,0L213.3,0L160,0L160,0L106.7,0L106.7,0L53.3,0L53.3,0L0,0L0,0Z"></path></svg>
